X:1
T:The Single Girl
M:2/2
L:1/8
K:G
 B2| d2 dd B2 AA| dd dd B4| dd dB G2 GE| GA GE D2| GG| B3 AB dd B|\
 BB AA G2||
